hush

setcps (86/120)

do
    let bd0 = ""
    let bd1 = "0"
    let bd2 = "0 0"
    let sn0 = ""
    let sn1 = "~ 3"
    let hh0 = ""
    let hh1 = "[~ 8]*2"
    let hh2 = "8*4"
    let hh3 = "6*4"
    d1 
        $ every 16 (# s "")
        $ every 8 (# cutoff "3000")
        $ every 4 (# speed 1.2)
        $ stack [
            n bd1,
            n sn0,
            n hh0
        ]
        # s "bmclub"
        # gain 1.3 # room 0.2